assets/images/vector/icons/book_bookmark_icon.svg

<svg fill="none" height="58" viewBox="0 0 52 58" width="52" xmlns="http://www.w3.org/2000/svg"><path d="m5 44.1667v-32.5c0-3.68337 2.98333-6.6667 6.6667-6.6667h35v33.3333" stroke="#111" stroke-linecap="round" stroke-linejoin="round" stroke-width="10"/><path d="m32.4993 44.1667h-13.3333v11.6667c0 .6733.4067 1.2833 1.03 1.54.6233.2633 1.3367.1167 1.8167-.36l3.82-3.82 3.82 3.82c.32.32.7466.4867 1.18.4867.2133 0 .4333-.04.6366-.1267.6234-.2567 1.03-.8667 1.03-1.54z" fill="#111"/><path d="m13.3333 49.9999h-2.5c-3.21997 0-5.8333-2.61-5.8333-5.8333s2.61333-5.8333 5.8333-5.8333h35.8334c-2.1367 2.8133-2.4467 8.49 0 11.6666h-8.3334" stroke="#111" stroke-linecap="round" stroke-linejoin="round" stroke-width="10"/><g fill="#111"><path d="m15 32.5c1.3807 0 2.5-1.1193 2.5-2.5s-1.1193-2.5-2.5-2.5-2.5 1.1193-2.5 2.5 1.1193 2.5 2.5 2.5z"/><path d="m15 15.8333c1.3807 0 2.5-1.1193 2.5-2.5 0-1.3808-1.1193-2.5-2.5-2.5s-2.5 1.1192-2.5 2.5c0 1.3807 1.1193 2.5 2.5 2.5z"/><path d="m15 24.1667c1.3807 0 2.5-1.1192 2.5-2.5 0-1.3807-1.1193-2.5-2.5-2.5s-2.5 1.1193-2.5 2.5c0 1.3808 1.1193 2.5 2.5 2.5z"/></g></svg>

<svg width="52" height="58" viewBox="0 0 52 58" fill="none" xmlns="http://www.w3.org/2000/svg">
<path d="M5 44.1667V11.6667C5 7.98333 7.98333 5 11.6667 5H46.6667V38.3333" stroke="#111111" stroke-width="10" stroke-linecap="round" stroke-linejoin="round"/>
<path d="M32.4993 44.1667H19.166V55.8334C19.166 56.5067 19.5727 57.1167 20.196 57.3734C20.8193 57.6367 21.5327 57.4901 22.0127 57.0134L25.8327 53.1934L29.6527 57.0134C29.9727 57.3334 30.3993 57.5001 30.8327 57.5001C31.046 57.5001 31.266 57.4601 31.4693 57.3734C32.0927 57.1167 32.4993 56.5067 32.4993 55.8334V44.1667Z" fill="#111111"/>
<path d="M13.3333 49.9999H10.8333C7.61333 49.9999 5 47.3899 5 44.1666C5 40.9433 7.61333 38.3333 10.8333 38.3333H46.6667C44.53 41.1466 44.22 46.8233 46.6667 49.9999H38.3333" stroke="#111111" stroke-width="10" stroke-linecap="round" stroke-linejoin="round"/>
<path d="M15 32.5C16.3807 32.5 17.5 31.3807 17.5 30C17.5 28.6193 16.3807 27.5 15 27.5C13.6193 27.5 12.5 28.6193 12.5 30C12.5 31.3807 13.6193 32.5 15 32.5Z" fill="#111111"/>
<path d="M15 15.8333C16.3807 15.8333 17.5 14.714 17.5 13.3333C17.5 11.9525 16.3807 10.8333 15 10.8333C13.6193 10.8333 12.5 11.9525 12.5 13.3333C12.5 14.714 13.6193 15.8333 15 15.8333Z" fill="#111111"/>
<path d="M15 24.1667C16.3807 24.1667 17.5 23.0475 17.5 21.6667C17.5 20.286 16.3807 19.1667 15 19.1667C13.6193 19.1667 12.5 20.286 12.5 21.6667C12.5 23.0475 13.6193 24.1667 15 24.1667Z" fill="#111111"/>
</svg>
